assets/images/script/n-6-e2.svg

<svg fill="none" height="153" viewBox="0 0 214 153" width="214" xmlns="http://www.w3.org/2000/svg"><path d="m28.4497 51.9352c-17.9279 0 36.1286 2.9834 53.783-.2543 11.0828-2.0326 26.1983-7.5393 31.2403-19.2011 3.85-8.9033-1.784-19.5455-9.066-24.41466-9.3435-6.2486-21.9963-6.24667-32.2204-2.54319-6.1282 2.21985-14.0012 7.58635-10.536 15.51345 5.2432 11.9949 23.2719 18.8345 34.181 22.6344 19.1874 6.6834 39.4174 9.3836 59.5414 10.5543 29.671 1.726 24.516 1.7933 53.364 3.1789 11.325 1.9962-22.947 1.2103-34.426 1.6531-69.904 7.1144-105.311 15.9439-133.5013 34.7944-20.3528 13.6095-34.63558 28.2405-37.69031 50.1005-1.1672 8.353 6.50101 5.939 10.90361 4.96" stroke="#000" stroke-linecap="round" stroke-width="5"/></svg>

<svg width="214" height="153" viewBox="0 0 214 153" fill="none" xmlns="http://www.w3.org/2000/svg">
<path d="M28.4497 51.9352C10.5218 51.9352 64.5783 54.9186 82.2327 51.6809C93.3155 49.6483 108.431 44.1416 113.473 32.4798C117.323 23.5765 111.689 12.9343 104.407 8.06514C95.0635 1.81654 82.4107 1.81847 72.1866 5.52195C66.0584 7.7418 58.1854 13.1083 61.6506 21.0354C66.8938 33.0303 84.9225 39.8699 95.8316 43.6698C115.019 50.3532 135.249 53.0534 155.373 54.2241C185.044 55.9501 179.889 56.0174 208.737 57.403C220.062 59.3992 185.79 58.6133 174.311 59.0561C104.407 66.1705 69 75 40.8097 93.8505C20.4569 107.46 6.17412 122.091 3.11939 143.951C1.95219 152.304 9.6204 149.89 14.023 148.911" stroke="black" stroke-width="5" stroke-linecap="round"/>
</svg>
